src/qt/rpdchain/res/img/ic-nav-dashboard-hover.svg

<?xml version="1.0" encoding="utf-8"?>
<!-- Generator: Adobe Illustrator 28.0.0, SVG Export Plug-In . SVG Version: 6.00 Build 0)  -->
<svg version="1.1" id="Layer_1" xmlns="http://www.w3.org/2000/svg" xmlns:xlink="http://www.w3.org/1999/xlink" x="0px" y="0px"
	 viewBox="0 0 24 40" style="enable-background:new 0 0 24 40;" xml:space="preserve">
<style type="text/css">
	.st0{fill:#FF5533;}
</style>
<g id="Dashboard">
	<path id="Path_18866" class="st0" d="M11,19H1v-8h10V19z M3,17h6v-4H3V17z"/>
	<path id="Path_18867" class="st0" d="M23,33H13V11h10V33z M15,31h6V13h-6V31z"/>
	<path id="Path_18868" class="st0" d="M11,33H1V21h10V33z M3,31h6v-8H3V31z"/>
</g>
</svg>

<?xml version="1.0" encoding="UTF-8"?>
<svg width="24px" height="40px" viewBox="0 0 24 40" version="1.1" xmlns="http://www.w3.org/2000/svg" xmlns:xlink="http://www.w3.org/1999/xlink">
    <!-- Generator: Sketch 52.6 (67491) - http://www.bohemiancoding.com/sketch -->
    <title>Dashboard</title>
    <desc>Created with Sketch.</desc>
    <g id="Dashboard" stroke="none" stroke-width="1" fill="none" fill-rule="evenodd">
        <path d="M11,19 L1,19 L1,11 L11,11 L11,19 Z M3,17 L9,17 L9,13 L3,13 L3,17 Z" id="Path_18866" fill="#FFFFFF" fill-rule="nonzero"></path>
        <path d="M23,33 L13,33 L13,11 L23,11 L23,33 Z M15,31 L21,31 L21,13 L15,13 L15,31 Z" id="Path_18867" fill="#FFFFFF" fill-rule="nonzero"></path>
        <path d="M11,33 L1,33 L1,21 L11,21 L11,33 Z M3,31 L9,31 L9,23 L3,23 L3,31 Z" id="Path_18868" fill="#FFFFFF" fill-rule="nonzero"></path>
    </g>
</svg>
